HTML/img/RGB Mazes/frgbmaze5.svg

<?xml version="1.0" encoding="UTF-8" standalone="no"?>
<!-- Created with Inkscape (http://www.inkscape.org/) -->

<svg
   xmlns:dc="http://purl.org/dc/elements/1.1/"
   xmlns:cc="http://creativecommons.org/ns#"
   xmlns:rdf="http://www.w3.org/1999/02/22-rdf-syntax-ns#"
   xmlns:svg="http://www.w3.org/2000/svg"
   xmlns="http://www.w3.org/2000/svg"
   xmlns:sodipodi="http://sodipodi.sourceforge.net/DTD/sodipodi-0.dtd"
   xmlns:inkscape="http://www.inkscape.org/namespaces/inkscape"
   width="76.276184mm"
   height="64.071426mm"
   viewBox="0 0 76.276184 64.071426"
   version="1.1"
   id="svg1044"
   inkscape:version="0.92.4 (5da689c313, 2019-01-14)"
   sodipodi:docname="frgbmaze5.svg">
  <defs
     id="defs1038" />
  <sodipodi:namedview
     id="base"
     pagecolor="#ffffff"
     bordercolor="#666666"
     borderopacity="1.0"
     inkscape:pageopacity="0.0"
     inkscape:pageshadow="2"
     inkscape:zoom="0.35"
     inkscape:cx="-211.36334"
     inkscape:cy="95.365568"
     inkscape:document-units="mm"
     inkscape:current-layer="layer1"
     showgrid="false"
     inkscape:snap-global="false"
     inkscape:window-width="1366"
     inkscape:window-height="705"
     inkscape:window-x="-8"
     inkscape:window-y="-8"
     inkscape:window-maximized="1" />
  <metadata
     id="metadata1041">
    <rdf:RDF>
      <cc:Work
         rdf:about="">
        <dc:format>image/svg+xml</dc:format>
        <dc:type
           rdf:resource="http://purl.org/dc/dcmitype/StillImage" />
        <dc:title></dc:title>
      </cc:Work>
    </rdf:RDF>
  </metadata>
  <g
     inkscape:label="Layer 1"
     inkscape:groupmode="layer"
     id="layer1"
     transform="translate(-32.86667,-109.99404)">
    <path
       style="fill:#ffffff;fill-opacity:1;stroke:#000000;stroke-width:2;stroke-miterlimit:4;stroke-dasharray:none;stroke-opacity:1"
       id="path1620"
       sodipodi:type="arc"
       sodipodi:cx="36.89048"
       sodipodi:cy="114.81547"
       sodipodi:rx="3.0238097"
       sodipodi:ry="3.0238097"
       sodipodi:start="0"
       sodipodi:end="6.2733417"
       sodipodi:open="true"
       d="m 39.91429,114.81547 a 3.0238097,3.0238097 0 0 1 -3.016369,3.0238 3.0238097,3.0238097 0 0 1 -3.031214,-3.00892 3.0238097,3.0238097 0 0 1 3.001449,-3.03861 3.0238097,3.0238097 0 0 1 3.045987,2.99396" />
    <g
       id="g925"
       style="fill:#ffffff;fill-opacity:0;stroke-width:2;stroke-miterlimit:4;stroke-dasharray:none"
       transform="matrix(0.86199337,0,0,0.86199337,-10.029938,73.395678)">
      <rect
         ry="2.4979179e-06"
         y="43"
         x="63.5"
         height="74.083336"
         width="74.083336"
         id="rect889"
         style="fill:#ffffff;fill-opacity:0;stroke:#000000;stroke-width:2;stroke-miterlimit:4;stroke-dasharray:none;stroke-opacity:1" />
      <path
         inkscape:connector-curvature="0"
         id="path891"
         d="M 63.499999,53.583334 H 84.666666 V 74.75 H 95.249999 V 64.166667 H 105.83333 V 43.000001"
         style="fill:#ffffff;fill-opacity:0;stroke:#000000;stroke-width:2;stroke-linecap:butt;stroke-linejoin:miter;stroke-miterlimit:4;stroke-dasharray:none;stroke-opacity:1" />
      <path
         inkscape:connector-curvature="0"
         id="path893"
         d="M 116.41667,43.000001 V 64.166667 H 127 V 74.75 H 116.41667 V 85.333334 H 95.249999 V 74.75"
         style="fill:#ffffff;fill-opacity:0;stroke:#000000;stroke-width:2;stroke-linecap:butt;stroke-linejoin:miter;stroke-miterlimit:4;stroke-dasharray:none;stroke-opacity:1" />
      <path
         inkscape:connector-curvature="0"
         id="path895"
         d="M 105.83333,64.166667 V 74.75"
         style="fill:#ffffff;fill-opacity:0;stroke:#000000;stroke-width:2;stroke-linecap:butt;stroke-linejoin:miter;stroke-miterlimit:4;stroke-dasharray:none;stroke-opacity:1" />
      <path
         inkscape:connector-curvature="0"
         id="path897"
         d="M 95.249999,53.583334 H 105.83333"
         style="fill:#ffffff;fill-opacity:0;stroke:#000000;stroke-width:2;stroke-linecap:butt;stroke-linejoin:miter;stroke-miterlimit:4;stroke-dasharray:none;stroke-opacity:1" />
      <path
         inkscape:connector-curvature="0"
         id="path899"
         d="m 116.41667,85.333334 h 21.16666"
         style="fill:#ffffff;fill-opacity:0;stroke:#000000;stroke-width:2;stroke-linecap:butt;stroke-linejoin:miter;stroke-miterlimit:4;stroke-dasharray:none;stroke-opacity:1" />
      <path
         inkscape:connector-curvature="0"
         id="path901"
         d="m 127,53.583334 h 10.58333"
         style="fill:#ffffff;fill-opacity:0;stroke:#000000;stroke-width:2;stroke-linecap:butt;stroke-linejoin:miter;stroke-miterlimit:4;stroke-dasharray:none;stroke-opacity:1" />
      <path
         inkscape:connector-curvature="0"
         id="path903"
         d="M 63.499999,64.166667 H 74.083332 V 85.333334 H 84.666666 V 95.916667 H 105.83333 V 85.333334"
         style="fill:#ffffff;fill-opacity:0;stroke:#000000;stroke-width:2;stroke-linecap:butt;stroke-linejoin:miter;stroke-miterlimit:4;stroke-dasharray:none;stroke-opacity:1" />
      <path
         inkscape:connector-curvature="0"
         id="path905"
         d="M 74.083332,117.08333 V 106.5 H 84.666666 V 95.916667"
         style="fill:#ffffff;fill-opacity:0;stroke:#000000;stroke-width:2;stroke-linecap:butt;stroke-linejoin:miter;stroke-miterlimit:4;stroke-dasharray:none;stroke-opacity:1" />
      <path
         inkscape:connector-curvature="0"
         id="path907"
         d="M 63.499999,95.916667 H 74.083332"
         style="fill:#ffffff;fill-opacity:0;stroke:#000000;stroke-width:2;stroke-linecap:butt;stroke-linejoin:miter;stroke-miterlimit:4;stroke-dasharray:none;stroke-opacity:1" />
      <path
         inkscape:connector-curvature="0"
         id="path909"
         d="M 95.249999,117.08333 V 106.5 H 116.41667 V 95.916667 H 127 V 85.333334"
         style="fill:#ffffff;fill-opacity:0;stroke:#000000;stroke-width:2;stroke-linecap:butt;stroke-linejoin:miter;stroke-miterlimit:4;stroke-dasharray:none;stroke-opacity:1" />
      <path
         inkscape:connector-curvature="0"
         id="path911"
         d="m 127,106.5 v 10.58333"
         style="fill:#ffffff;fill-opacity:0;stroke:#000000;stroke-width:2;stroke-linecap:butt;stroke-linejoin:miter;stroke-miterlimit:4;stroke-dasharray:none;stroke-opacity:1" />
    </g>
  </g>
</svg>

<svg xmlns="http://www.w3.org/2000/svg" width="288.288" height="242.16" viewBox="0 0 76.276 64.071"><g fill="#fff" stroke="#000" stroke-width="2"><path d="M7.048 4.821A3.024 3.024 0 014.03 7.845 3.024 3.024 0 011 4.836a3.024 3.024 0 013.001-3.038 3.024 3.024 0 013.046 2.994"/><g transform="matrix(.862 0 0 .862 -42.897 -36.598)" fill-opacity="0"><rect ry="0" y="43" x="63.5" height="74.083" width="74.083"/><path d="M63.5 53.583h21.167V74.75H95.25V64.167h10.583V43"/><path d="M116.417 43v21.167H127V74.75h-10.583v10.583H95.25V74.75M105.833 64.167V74.75M95.25 53.583h10.583M116.417 85.333h21.166M127 53.583h10.583"/><path d="M63.5 64.167h10.583v21.166h10.584v10.584h21.166V85.333M74.083 117.083V106.5h10.584V95.917M63.5 95.917h10.583M95.25 117.083V106.5h21.167V95.917H127V85.333M127 106.5v10.583"/></g></g></svg>
